data/styles/clear/style-clear/symbols/bank-l.svg

<svg height="28" viewBox="0 0 28 28" width="28"><g fill="none" fill-rule="evenodd"><circle cx="14" cy="14" fill="#fff" opacity=".6" r="14"/><circle cx="14" cy="14" fill="#717065" r="13"/><path d="m7 9.26666667 7-3.26666667 7 3.26666667v1.40000003h-1.8666667v7.4666666h1.8666667v1.8666667h-14v-1.8666667h1.86666667v-7.4666666h-1.86666667zm9.3333333 6.06791053c0-1.1605508-1.0494814-2.1009329-2.3354074-2.1009329-.4272592 0-.7798518-.3134607-.7798518-.7015549 0-.3880941.3484444-.7015548.7798518-.7015548s.7798519.3171923.7798519.7015548h1.5555555c0-.9105286-.6512592-1.6792536-1.5555555-1.9703243v-.82843177h-1.5555556v.82843177c-.9042963.2910707-1.5555555 1.0597957-1.5555555 1.9703243 0 1.1605509 1.0494814 2.100933 2.3354074 2.100933.4314074 0 .7798518.3134606.7798518.7015548s-.3484444.7015549-.7798518.7015549-.7798519-.3171924-.7798519-.7015549h-1.5555555c0 .9105287.6512592 1.6792537 1.5555555 1.9703243v.8284318h1.5555556v-.8284318c.9042963-.2910706 1.5555555-1.0597956 1.5555555-1.9703243z" fill="#fff"/></g></svg>

<svg width="28" height="28" viewBox="0 0 28 28">
  <g fill="none" fill-rule="evenodd">
    <circle cx="14" cy="14" r="14" fill="#FFF" opacity=".6"/>
    <circle cx="14" cy="14" r="13" fill="#717065"/>
    <path fill="#FFF" d="M7,9.26666667 L14,6 L21,9.26666667 L21,10.6666667 L19.1333333,10.6666667 L19.1333333,18.1333333 L21,18.1333333 L21,20 L7,20 L7,18.1333333 L8.86666667,18.1333333 L8.86666667,10.6666667 L7,10.6666667 L7,9.26666667 Z M16.3333333,15.3345772 C16.3333333,14.1740264 15.2838519,13.2336443 13.9979259,13.2336443 C13.5706667,13.2336443 13.2180741,12.9201836 13.2180741,12.5320894 C13.2180741,12.1439953 13.5665185,11.8305346 13.9979259,11.8305346 C14.4293333,11.8305346 14.7777778,12.1477269 14.7777778,12.5320894 L16.3333333,12.5320894 C16.3333333,11.6215608 15.6820741,10.8528358 14.7777778,10.5617651 L14.7777778,9.73333333 L13.2222222,9.73333333 L13.2222222,10.5617651 C12.3179259,10.8528358 11.6666667,11.6215608 11.6666667,12.5320894 C11.6666667,13.6926403 12.7161481,14.6330224 14.0020741,14.6330224 C14.4334815,14.6330224 14.7819259,14.946483 14.7819259,15.3345772 C14.7819259,15.7226714 14.4334815,16.0361321 14.0020741,16.0361321 C13.5706667,16.0361321 13.2222222,15.7189397 13.2222222,15.3345772 L11.6666667,15.3345772 C11.6666667,16.2451059 12.3179259,17.0138309 13.2222222,17.3049015 L13.2222222,18.1333333 L14.7777778,18.1333333 L14.7777778,17.3049015 C15.6820741,17.0138309 16.3333333,16.2451059 16.3333333,15.3345772 Z"/>
  </g>
</svg>
